Adwaita++/actions/22/kdenlive-add-color-clip.svg

<svg fill="none" height="22" viewBox="0 0 22 22" width="22" xmlns="http://www.w3.org/2000/svg">
  <path d="m5 3c-1.10457 0-2 .89543-2 2v12c0 1.1046.89543 2 2 2h12c1.1046 0 2-.8954 2-2v-12c0-1.10457-.8954-2-2-2zm8.594 4c.486 1.703 1.694 3.172 2.22 4.344.182.348.28.733.28 1.156 0 1.385-1.115 2.5-2.5 2.5-.3285.0007-.6539-.0636-.9575-.189s-.5795-.3095-.8117-.5418c-.2323-.2322-.4164-.5081-.5418-.8117s-.1897-.629-.189-.9575c0-.423.13-.808.312-1.156.525-1.172 1.7-2.64 2.188-4.344z" fill="#444"/>
</svg>

<svg xmlns="http://www.w3.org/2000/svg" fill="none" width="22" height="22" viewBox="0 0 22 22">
 <path fill="#444" d="M5 3C3.89543 3 3 3.89543 3 5V17C3 18.1046 3.89543 19 5 19H17C18.1046 19 19 18.1046 19 17V5C19 3.89543 18.1046 3 17 3H5ZM13.594 7C14.08 8.703 15.288 10.172 15.814 11.344C15.996 11.692 16.094 12.077 16.094 12.5C16.094 13.885 14.979 15 13.594 15C13.2655 15.0007 12.9401 14.9364 12.6365 14.811C12.3329 14.6856 12.057 14.5015 11.8248 14.2692C11.5925 14.037 11.4084 13.7611 11.283 13.4575C11.1576 13.1539 11.0933 12.8285 11.094 12.5C11.094 12.077 11.224 11.692 11.406 11.344C11.931 10.172 13.106 8.704 13.594 7Z"/>
</svg>
